X:1
T:The Wee Falorie Man
M:6/8
L:1/8
K:G
 ddd d2 e| d2 B G2 A| BBB B2 c| B2 G D3| ddd d2 e| ddB G2 A| BBB A2 A|\
 AG G- G3|

